


d1 $ stack[
-- every 4 (degradeBy 0.8) $ sound "bd*2 [hh bd] cp [hh cp?]",
sound "[~ 808:8*2]*2" |+| speed(rand) |+| pan(rand),
every 4 (stut 4 0.5 0.5) $ every 2 (striate 64) $ sound "808" |+| speed("<1 1 1 0.75>") |*| speed(0.25)
]

hush
hush
hush
11111111
