bps(140/60)



d1 $ stack [
degradeBy 0.4 $ sound "808:2*8" |+| speed (rand),
-- every 4 (shuffle 4) $ sound "hh bd:2 [tbd:3*2]? tsn:3 ",
sound "kr:3*2" |+| gain (0.9 + 0.1*rand),
degradeBy 0.4 $ iter 4 $ chop 8 $ striate 2 $ sound "tav:5? tav:7" |+| pan (rand),
every 4 (|*| speed 1.25) $ trunc "<0.5 0.75 1>" $ chop 16 $ sound "tas" |+| speed "<0.5 1>" |+| gain 1.3
]

hush
