
setcps(90/60/4)

d1 $ ply 2 $ n (scale "dorian" "0 3 4 5 3 1 2 4") |+| n "0" 
   # s "tides" # mode "3"
   # shift (slow 5 sine)
    # tidesshape (slow 7 sine)
    # tidessmooth (range 0.2 1 $ slow 8 sine)
    # slope (slow 3 sine)
   
   -- # s "superpiano" # lpf 300
   -- # clouds 0.5 0.25 0.01 0.1
    -- # cloudsblend 1 0.1 0.33 0.8

d2 $ fast 2 $ trunc 0.75 $ struct "t(3,8,1)" $ stack [sound "xm(3,8,1)", sound "bd:1" # crush 6]

d3 $ sound "hh*8"