setcps(80/60/4)

do
  d1 $ n "<[ds5 g4 gs4 g4 d4 g4 ds5 g4][e5 e4 a4 e4 b4 e4 c5 e4]>" # s "superpiano"
  d2 $ n "<[c5 g4] [a4 e4]>" # s "supersaw" # voice 0



do
  d1 $ n "<[d6 f5 g5 f5 _ d6 g5 b5] [c6 e5 f5 e5 _ c6 f5 a5] [as5 d5 ds5 d5 c6 d5 ds5 d5][f5 d5 g5 d5 a5 d5 b5 d5]>" # "superpiano"
  d2 $ n "<[d4 g4][c4 f3][as3 g3][d4 a3]>" # s "supersaw" # voice 0